svgs/regular/battery-slash.svg

<svg xmlns="http://www.w3.org/2000/svg" viewBox="0 0 640 512"><!--! Font Awesome Pro 6.6.0 by @fontawesome - https://fontawesome.com License - https://fontawesome.com/license (Commercial License) Copyright 2024 Fonticons, Inc. --><path d="M38.8 5.1C28.4-3.1 13.3-1.2 5.1 9.2S-1.2 34.7 9.2 42.9l592 464c10.4 8.2 25.5 6.3 33.7-4.1s6.3-25.5-4.1-33.7l-87.5-68.6C563.1 386 576 362.5 576 336l0-16c17.7 0 32-14.3 32-32l0-64c0-17.7-14.3-32-32-32l0-16c0-44.2-35.8-80-80-80L154.8 96 38.8 5.1zM216 144l280 0c17.7 0 32 14.3 32 32l0 160c0 15.9-11.6 29.1-26.7 31.6L216 144zM406.2 416l-60.9-48L112 368c-17.7 0-32-14.3-32-32l0-160c0-5.1 1.2-10 3.4-14.3l-38-30C36.9 144.4 32 159.6 32 176l0 160c0 44.2 35.8 80 80 80l294.2 0z"/></svg>

<svg xmlns="http://www.w3.org/2000/svg" viewBox="0 0 640 512"><!--! Font Awesome Pro 6.4.2 by @fontawesome - https://fontawesome.com License - https://fontawesome.com/license (Commercial License) Copyright 2023 Fonticons, Inc. --><path d="M38.8 5.1C28.4-3.1 13.3-1.2 5.1 9.2S-1.2 34.7 9.2 42.9l592 464c10.4 8.2 25.5 6.3 33.7-4.1s6.3-25.5-4.1-33.7l-87.5-68.6C563.1 386 576 362.5 576 336V320c17.7 0 32-14.3 32-32V224c0-17.7-14.3-32-32-32V176c0-44.2-35.8-80-80-80H154.8L38.8 5.1zM216 144H496c17.7 0 32 14.3 32 32V336c0 15.9-11.6 29.1-26.7 31.6L216 144zM345.2 368H112c-17.7 0-32-14.3-32-32V176c0-5.1 1.2-10 3.4-14.3l-38-30C36.9 144.4 32 159.6 32 176V336c0 44.2 35.8 80 80 80H406.2l-60.9-48z"/></svg>
